X: 3009
T: MISS LUCY CAMPBELL
Q:"Strathspey."
R: Strathspey.
%R:strathspey
B: James Kerr "Merry Melodies" v.3 p.4 #9
Z: 2016 John Chambers <jc:trillian.mit.edu>
M: C
L: 1/16
K: D
uB2 |\
A3DA3F A3DA3F | A3DA3F BE3 E3F |\
A3DA3F d3ef3e | d3B ABdA FD3 D2 :|
|: uf2 |\
d3B AF3 d3ef3e | d3B AF3 eE3 E3e |\
d3BA3F d3ef3e | d3B ABdA FD3 D2 :|

%%sep 1 1 500
%%sep 1 1 500

